X:10760
T:Micky O'Callaghan's
S:unknown. photocopy, no. 8 on p.7
M:12/8
I:speed 300
K:D
| ~A3 AFA dAF AFD | ~A3 ABc ~d3 d2e | ~f3 fga efe d2B| AFA dAF ~E3 EFG |
~A3 AFA dAF AFD | ~A3 ABc ~d3 d2e | ~f3 fga efe d2B | AFA f2e d3 d2 ||
|:e | ~f3 f2e f2e fga | ~A2 A BAF ABA ABd |~e3 ~e3 efe e2f | ~g3 f2e d3 d2:|
